movekom_app/assets/icons/cable.svg

<svg height="80.031" viewBox="0 0 92.646 80.031" width="92.646" xmlns="http://www.w3.org/2000/svg"><g fill="#8d8d8d"><path d="m2.418 9.671h2.418v2.418a2.418 2.418 0 0 0 4.836 0v-2.418h2.418a2.418 2.418 0 0 0 0-4.836h-2.419v-2.417a2.418 2.418 0 0 0 -4.836 0v2.418h-2.417a2.418 2.418 0 0 0 0 4.836z" transform="matrix(-1 0 0 -1 75.614 70.361)"/><path d="m16.925 33.85a16.925 16.925 0 1 0 -16.925-16.925 16.944 16.944 0 0 0 16.925 16.925zm0-29.014a12.089 12.089 0 1 1 -12.089 12.089 12.1 12.1 0 0 1 12.089-12.089z" transform="matrix(-1 0 0 -1 85.286 80.032)"/><path d="m2.418 4.836h9.671a2.418 2.418 0 0 0 0-4.836h-9.671a2.418 2.418 0 0 0 0 4.836z" transform="matrix(-1 0 0 -1 26.52 65.525)"/><path d="m16.925 33.85a16.925 16.925 0 1 0 -16.925-16.925 16.944 16.944 0 0 0 16.925 16.925zm0-29.014a12.089 12.089 0 1 1 -12.089 12.089 12.1 12.1 0 0 1 12.089-12.089z" transform="matrix(-1 0 0 -1 36.191 80.032)"/><path d="m2.418 14.507h9.832a12.1 12.1 0 0 1 12.09 12.093v4.836a2.418 2.418 0 0 0 2.418 2.418h2.418v7.576a2.418 2.418 0 1 0 4.836 0v-7.58h2.418a2.418 2.418 0 0 0 2.418-2.418v-4.832a26.627 26.627 0 0 0 -26.598-26.6h-9.832a2.418 2.418 0 0 0 -2.418 2.418v9.671a2.418 2.418 0 0 0 2.418 2.418zm2.418-9.671h7.414a21.785 21.785 0 0 1 21.761 21.764v2.418h-4.835v-2.418a16.944 16.944 0 0 0 -16.926-16.929h-7.414z" transform="matrix(0 1 -1 0 43.843 .001)"/><path d="m2.418 33.85h2.418v7.576a2.418 2.418 0 1 0 4.836 0v-7.576h2.418a2.418 2.418 0 0 0 2.418-2.418v-4.832a12.1 12.1 0 0 1 12.092-12.093h9.833a2.418 2.418 0 0 0 2.418-2.418v-9.671a2.418 2.418 0 0 0 -2.422-2.418h-9.829a26.627 26.627 0 0 0 -26.6 26.6v4.836a2.418 2.418 0 0 0 2.418 2.414zm2.418-7.25a21.785 21.785 0 0 1 21.764-21.764h7.415v4.835h-7.415a16.944 16.944 0 0 0 -16.929 16.929v2.418h-4.835z" transform="matrix(0 -1 1 0 48.802 38.848)"/></g></svg>

<svg xmlns="http://www.w3.org/2000/svg" width="92.646" height="80.031" viewBox="0 0 92.646 80.031">
    <defs>
        <style>
            .prefix__cls-1{fill:#8d8d8d}
        </style>
    </defs>
    <g id="prefix__cable" transform="rotate(180 46.323 40.016)">
        <path id="prefix__Trazado_452" d="M2.418 9.671h2.418v2.418a2.418 2.418 0 0 0 4.836 0V9.671h2.418a2.418 2.418 0 0 0 0-4.836H9.671V2.418a2.418 2.418 0 0 0-4.836 0v2.418H2.418a2.418 2.418 0 0 0 0 4.836z" class="prefix__cls-1" data-name="Trazado 452" transform="translate(17.032 9.671)"/>
        <path id="prefix__Trazado_453" d="M16.925 33.85A16.925 16.925 0 1 0 0 16.925 16.944 16.944 0 0 0 16.925 33.85zm0-29.014A12.089 12.089 0 1 1 4.836 16.925 12.1 12.1 0 0 1 16.925 4.836z" class="prefix__cls-1" data-name="Trazado 453" transform="translate(7.36)"/>
        <path id="prefix__Trazado_454" d="M2.418 4.836h9.671a2.418 2.418 0 0 0 0-4.836H2.418a2.418 2.418 0 0 0 0 4.836z" class="prefix__cls-1" data-name="Trazado 454" transform="translate(66.126 14.507)"/>
        <path id="prefix__Trazado_455" d="M16.925 33.85A16.925 16.925 0 1 0 0 16.925 16.944 16.944 0 0 0 16.925 33.85zm0-29.014A12.089 12.089 0 1 1 4.836 16.925 12.1 12.1 0 0 1 16.925 4.836z" class="prefix__cls-1" data-name="Trazado 455" transform="translate(56.455)"/>
        <path id="prefix__Trazado_456" d="M2.418 14.507h9.832A12.1 12.1 0 0 1 24.34 26.6v4.836a2.418 2.418 0 0 0 2.418 2.418h2.418v7.576a2.418 2.418 0 1 0 4.836 0v-7.58h2.418a2.418 2.418 0 0 0 2.418-2.418V26.6A26.627 26.627 0 0 0 12.25 0H2.418A2.418 2.418 0 0 0 0 2.418v9.671a2.418 2.418 0 0 0 2.418 2.418zm2.418-9.671h7.414A21.785 21.785 0 0 1 34.011 26.6v2.418h-4.835V26.6A16.944 16.944 0 0 0 12.25 9.671H4.836z" class="prefix__cls-1" data-name="Trazado 456" transform="rotate(-90 64.417 15.614)"/>
        <path id="prefix__Trazado_457" d="M2.418 33.85h2.418v7.576a2.418 2.418 0 1 0 4.836 0V33.85h2.418a2.418 2.418 0 0 0 2.418-2.418V26.6A12.1 12.1 0 0 1 26.6 14.507h9.833a2.418 2.418 0 0 0 2.418-2.418V2.418A2.418 2.418 0 0 0 36.429 0H26.6A26.627 26.627 0 0 0 0 26.6v4.836a2.418 2.418 0 0 0 2.418 2.414zm2.418-7.25A21.785 21.785 0 0 1 26.6 4.836h7.415v4.835H26.6A16.944 16.944 0 0 0 9.671 26.6v2.418H4.836z" class="prefix__cls-1" data-name="Trazado 457" transform="rotate(90 1.33 42.514)"/>
    </g>
</svg>
